X:74
T:My Guardian Angel Is a Space Cadet
R:reel
C: 1994, 2010 L.E. McCullough  
M:4/4 
L:1/8
K:G
ge|:dBAB ~G3A|BA (3B^cd ~e3d|ef~g2 d~g3|
dBGA BAge|dBAB ~G3A|BA (3B^cd ~e3f|
~g3a ageg|1 dGBA G2ge:|2 dGBA G2 (3B^cd|] 
|:~e3d ~B3d|~e3d ~f3d|gfga gfed|(3B^cd gd edBd|
~e3d ~B3d|~e3d ~f3d|~g3a ageg|1 dgba ~g3f:|2 dgba g2ge|]


